X: 140
T:SACRISTAIN
M:4/4
L:1/4
Q:1/4=60
Z:Yves BELOTTEAU
K:C
|Gcef/2e/2 d/2e/2fdG|Bdd/2f/2e/2d/2 c2Gc|ef/2e/2d/2e/2f dGBd|d/2f/2e/2d/
2c2 gfdf|
eced c/2d/2g/2f/2e2|gfdf eced|c/2d/2g/2f/2e2 d/2f/2e/2d/2cc|G/2c/2c/2B/2
 +A/2G/2+G/2e/2e/2d/2 +e/2f/2+ f/2d/2d/2e/2 +d/2c/2+c/2d/2e/2c/2|
G/2c/2c/2B/2 +A/2G/2+G/2e/2e/2d/2 +e/2f/2+ f/2d/2d/2c/2 +d/2e/2+e/2d/2c|
W:
W: From "Falaleiro" http://home.t-online.de/home/pheld/homepage.htm

